X: 10552
M: C|
L: 1/8
K: D
|: A2 |\
dcBA GFED | F2FF F2A2 | defd cdec | defd cBAc |\
dcdA GFGA | BGAF E2F2 | GBAG FDEC | D2D2D2 :|


